frontend/public/map-pin.svg

<svg width="48" height="48" viewBox="0 0 48 48" fill="none" xmlns="http://www.w3.org/2000/svg">
<path d="M42 20C42 34 24 46 24 46C24 46 6 34 6 20C6 15.2261 7.89642 10.6477 11.2721 7.27208C14.6477 3.89642 19.2261 2 24 2C28.7739 2 33.3523 3.89642 36.7279 7.27208C40.1036 10.6477 42 15.2261 42 20Z" stroke="#FB4A04" stroke-width="2" stroke-linecap="round" stroke-linejoin="round"/>
<path d="M24 26C27.3137 26 30 23.3137 30 20C30 16.6863 27.3137 14 24 14C20.6863 14 18 16.6863 18 20C18 23.3137 20.6863 26 24 26Z" stroke="#FB4A04" stroke-width="2" stroke-linecap="round" stroke-linejoin="round"/>
</svg>

<?xml version="1.0" encoding="UTF-8"?>
<svg id="Layer_1" data-name="Layer 1" xmlns="http://www.w3.org/2000/svg" width="48" height="48" viewBox="0 0 48 48">
  <defs>
    <style>
      .cls-1 {
        fill: none;
        stroke: #eece93;
        stroke-linecap: round;
        stroke-linejoin: round;
        stroke-width: 2px;
      }
    </style>
  </defs>
  <path class="cls-1" d="M42,20c0,14-18,26-18,26,0,0-18-12-18-26,0-4.77,1.9-9.35,5.27-12.73,3.38-3.38,7.95-5.27,12.73-5.27s9.35,1.9,12.73,5.27c3.38,3.38,5.27,7.95,5.27,12.73Z"/>
  <path class="cls-1" d="M24,26c3.31,0,6-2.69,6-6s-2.69-6-6-6-6,2.69-6,6,2.69,6,6,6Z"/>
</svg>
